src/telerik-icons/solid/table-column-insert-right.svg

<?xml version="1.0" encoding="utf-8"?>
<svg xmlns="http://www.w3.org/2000/svg" width="512" height="512" viewBox="0 0 512 512">
  <path d="M352 480V0h128v480H352zM320 32v416H32V32h288zm-32 32h-96v96h96V64zm0 128h-96v96h96v-96zm0 128h-96v96h96v-96zM64 416h96v-96H64v96zm96-128v-96H64v96h96zM64 160h96V64H64v96z"/>
</svg>

<?xml version="1.0" encoding="utf-8"?>
<!-- Generator: Adobe Illustrator 19.2.1, SVG Export Plug-In . SVG Version: 6.00 Build 0)  -->
<svg xmlns="http://www.w3.org/2000/svg" width="512" height="512" viewBox="0 0 512 512">
<path d="M352,480V0h128v480H352z M320,32v416H32V32H320z M288,64h-96v96h96V64z M288,192h-96v96h96V192z M288,320h-96v96h96V320z
	 M64,416h96v-96H64V416z M160,288v-96H64v96H160z M64,160h96V64H64V160z" />
</svg>
